X: 1
T: Bourr\'ee \`a Durin
C: Serge Durin
R: bour\'ee 2T
S: NEFFA 2019 French Jam handout p.4 #2 (transcription by Angelo Girardi)
Z: 2019 John Chambers <jc:trillian.mit.edu>
M: 2/4
L: 1/16
K: Am
"^A"|: "Am"e4 ^d2e2 | c6 B2 | A3B c2A2 |1 "E"BcBA ^G2E2 :|2 "E"B8 :|
"^B"|: "E"E3^F ^G2E2 | "Am"A^GAB c2BA | "E"^G3A B2G2 |1 "Am"A^GAB A2G2 :|2 "Am"A8 :|
